!!!COM: Schiørring, Niels
!!!CDT: 1743-1798
!!!OPR@@DA: Choral-Bog
!!!ONM: 28
!!!OTL@@DA: Herre Chriſt! Gud Faders eenbaarne Søn
**kern	**fb	**kern	**kern	**kern	**kern	**kern	**kern	**kern
*part6	*part6	*part6	*part5	*part5	*part4	*part3	*part2	*part1
*staff8	*	*staff7	*staff6	*staff5	*staff4	*staff3	*staff2	*staff1
*clefF4	*	*clefC1	*clefF4	*clefC1	*clefF4	*clefC4	*clefC3	*clefC1
*mclefF4	*	*mclefG2	*mclefF4	*mclefG2	*mclefF4	*mclefGv2	*mclefG2	*mclefG2
*k[f#]	*	*k[f#]	*k[f#]	*k[f#]	*k[f#]	*k[f#]	*k[f#]	*k[f#]
*G:	*	*G:	*G:	*G:	*G:	*G:	*G:	*G:
*M4/4	*	*M4/4	*M4/4	*M4/4	*M4/4	*M4/4	*M4/4	*M4/4
*met(c)	*	*met(c)	*met(c)	*met(c)	*met(c)	*met(c)	*met(c)	*met(c)
*MM180	*	*MM180	*MM180	*MM180	*MM180	*MM180	*MM180	*MM180
*	*above	*	*	*	*	*	*	*
*	*slash	*	*	*	*	*	*	*
*	*	*	*^	*^	*	*	*	*
=1	=1	=1	=1	=1	=1	=1	=1	=1	=1	=1
2G	.	2g	2B	2G	2g	2d	2G	2B	2d	2g
=2	=2	=2	=2	=2	=2	=2	=2	=2	=2	=2
2E	.	2g	2B	2E	2g	2e	2E	2B	2e	2g
4BB	6	2b	2G	4BB	2b	4d	4BB	4d	2g	2b
4C	.	.	.	4C	.	[4e	4C	[4e	.	.
=3	=3	=3	=3	=3	=3	=3	=3	=3	=3	=3
2D	9	2a	2F#	2D	2a	4e]	2D	(4e]	2f#	2a
.	8	.	.	.	.	8dL	.	8dL	.	.
.	.	.	.	.	.	8cJ	.	8cJ)	.	.
2E	.	2g	[2E	2E	2g	2B	2E	2B	[2e	2g
=4	=4	=4	=4	=4	=4	=4	=4	=4	=4	=4
2AA	6 5	1f#	2E]	2AA	1f#	2c	(2AA	(2c	(2e]	1f#
2BB	#	.	4D#X	2BB	.	2B	2BB)	4B	2d#X)	.
.	.	.	4A	.	.	.	.	4A)	.	.
=5	=5	=5	=5	=5	=5	=5	=5	=5	=5	=5
2E	.	2e	2G	2E	2e	2B	2E	2G	2e	2e
2GG#X	5	2b	2E	2GG#X	2b	2dni	2GG#X	2d	2e	2b
=6	=6	=6	=6	=6	=6	=6	=6	=6	=6	=6
2AA	.	2cc	2E	2AA	2cc	2c	2AA	2c	2e	2cc
2D	.	2a	2F#	2D	2a	2d	2D	2d	2f#	2a
=7	=7	=7	=7	=7	=7	=7	=7	=7	=7	=7
2G	.	2b	2.G	2GG	2b	1d	2G	2d	2.g	2b
2D	4	2a	.	2D	2a	.	2D	(4d	.	2a
.	3	.	4F#	.	.	.	.	4c)	4f#	.
=8	=8	=8	=8	=8	=8	=8	=8	=8	=8	=8
*	*	*	*	*	*	*^	*	*	*	*
2GG	.	2g	2G	2GG	2g	2B	2d/	2GG	2B	2g	2g
*	*	*	*	*	*	*v	*v	*	*	*	*
=9:|!	=9:|!	=9:|!	=9:|!	=9:|!	=9:|!	=9:|!	=9:|!	=9:|!	=9:|!	=9:|!
2E	.	2g	2B	2E	2g	2e	2E	2B	2e	2g
=10	=10	=10	=10	=10	=10	=10	=10	=10	=10	=10
2D	6 n	2b	2B	2D	2b	2fn	2D	2B	2fn	2b
2E	#	2b	2G#X	2E	2b	2e	2E	2G#X	2e	2b
=11	=11	=11	=11	=11	=11	=11	=11	=11	=11	=11
2A	.	2cc	2A	2A	2cc	2e	2A	2A	2e	2cc
2AA	.	2cc	2ryy	2AA	2e	2a	2AA	2e	[2a	2cc
=12	=12	=12	=12	=12	=12	=12	=12	=12	=12	=12
2.BB	7	1dd	1ryy	2.BB	1d	2a	(2.BB	1d	(2a]	1dd
.	6_	.	.	.	.	[2g	.	.	[2g)	.
4C	.	.	.	4C	.	.	4C)	.	.	.
=13	=13	=13	=13	=13	=13	=13	=13	=13	=13	=13
2D	4	2a	1ryy	2D	2d	4g]	2D	2d	(4g]	2a
.	3	.	.	.	.	4f#	.	.	4f#)	.
2F#	6	2dd	.	2F#	2d	2a	2F#	2d	2a	2dd
=14	=14	=14	=14	=14	=14	=14	=14	=14	=14	=14
2G	.	2b	1ryy	2G	2d	2g	2G	2d	2g	2b
4E	.	2b	.	4E	[2e	[2g	(4E	2e	[2g	2b
4D	.	.	.	4D	.	.	4D)	.	.	.
=15	=15	=15	=15	=15	=15	=15	=15	=15	=15	=15
4C#X	5	2a	1ryy	4C#X	4e]	4g]	(4C#X	(4e	(4g]	2a
4D#X	5	.	.	4D#X	2.B	2f#	4D#X)	4B)	2f#)	.
2E	9	2g	.	2E	.	.	2E	2B	.	2g
.	8	.	.	.	.	4e	.	.	4e	.
=16	=16	=16	=16	=16	=16	=16	=16	=16	=16	=16
2AA	6 5	1f#	2ryy	2AA	2cni	2e	(2AA	(2c	(2e	1f#
2BB	#	.	4B	2BB	4ryy	2d#X	2BB)	4B	2d#X)	.
.	.	.	4A	.	4ryy	.	.	4A)	.	.
=17	=17	=17	=17	=17	=17	=17	=17	=17	=17	=17
2C	.	2e	2G	2C	2e	2e	2C	2G	2e	2e
2BB	#6\	2b	2G#X	2BB	2b	2dni	2BB	2G#X	2dni	2b
=18	=18	=18	=18	=18	=18	=18	=18	=18	=18	=18
2AA	.	2cc	2A	2AA	2cc	2e	2AA	2A	2e	2cc
2D	.	2a	2F#	2D	2a	2d	2D	2F#	2d	2a
=19	=19	=19	=19	=19	=19	=19	=19	=19	=19	=19
4GG	.	2b	2.G	4GG	2b	2d	(4GG	[2G	2d	2b
4BB	.	.	.	4BB	.	.	4BB)	.	.	.
4C	6 5	2a	.	4C	2a	4e	(4C	(4G]	(4e	2a
4D	.	.	4F#	4D	.	4d	4D)	4F#)	4d)	.
=20	=20	=20	=20	=20	=20	=20	=20	=20	=20	=20
*	*	*	*	*	*	*^	*	*	*	*
2GG	.	2g	2G	2GG	2g	2B	2d/	2GG	2G	2B	2g
*	*	*	*v	*v	*	*	*	*	*	*	*
*	*	*	*	*v	*v	*v	*	*	*	*
==	==	==	==	==	==	==	==	==
*-	*-	*-	*-	*-	*-	*-	*-	*-
!!!system-decoration: {(s1,s2,s3,s4)}{(s5,s6)}{(s7,s8)}
!!!RDF**kern: i = editorial accidental
!!!RDF**kern: > = above
!!!RDF**kern: < = below
!!!AGN: chorale
!!!EED: Derek Remeš
!!!EED2: Victor Phan
!!!END: 2023/11/28
!!!ENC: Wolfgang Drescher
!!!EEV: 2023/12/11
!!!title: @{ONM}. @{OTL}
!!!verovio: mnumInterval 1